X:105
T:Hunting the hare - Nankivell
C:Taken down from Wm. Nankivell, Sept 29, 1890 by F.W.B.
%%VWML:SBG-1-1-506-0
F:http://www.vwml.org/record/SBG/1/1/506
Z:Original Sibleius Transcription by Martin and Shan Graebe
L:1/8
M:6/8
I:linebreak $
K:C
G | Gcc cBc | d>dd d2 c | eee edc | d2 d dc G |$ Gcc c3 | Gcc cGE | cBc dBG | e2 d e2 d | 
cBd c2 G |$ Gcc dBG | Gcc dBG | edc edc | cBd c3 |] 



